svg/free/browser.svg

<svg version="1.1" xmlns="http://www.w3.org/2000/svg" width="24" height="24" viewBox="0 0 24 24">
<title>browser</title>
<path d="M22.125 1.875h-20.25c-0.621 0.001-1.124 0.504-1.125 1.125v18c0.001 0.621 0.504 1.124 1.125 1.125h20.25c0.621-0.001 1.124-0.504 1.125-1.125v-18c-0.001-0.621-0.504-1.124-1.125-1.125h-0zM2.25 3.375h4.5v3.375h-4.5zM21.75 20.625h-19.5v-12.375h19.5zM21.75 6.75h-13.5v-3.375h13.5z"></path>
</svg>

<svg xmlns="http://www.w3.org/2000/svg" width="24" height="24" viewBox="0 0 24 24"><path d="M22.125 1.875H1.875A1.127 1.127 0 00.75 3v18a1.127 1.127 0 001.125 1.125h20.25A1.127 1.127 0 0023.25 21V3a1.127 1.127 0 00-1.125-1.125zM2.25 3.375h4.5V6.75h-4.5zm19.5 17.25H2.25V8.25h19.5zm0-13.875H8.25V3.375h13.5z"/></svg>
